X:0148
T:Old Plantation Girls.
C:Virginian % Aird's note
M:9/8
L:1/8
Q:3/8=120
I: :: ::
Z:Jack Campin * www.campin.me.uk * 2009
K:A Dorian
B|c2A  B2G  E2F |G2G  G2A   Bcd    |
  c2A  B2G  E2E |E2A  A>BA  A2    :|
B|c>de e>dc B2A |G>Bd d>BG (B/c/d)B|
  c>de e>dc B>cd|e2e  e>cA  A2    :|

